X: 1747
T: Sevda Yaratan Gözlerini...
C: Yesârî Âsım Arsoy
O: Turkey
F: http://compmusic.upf.edu/node/140
N: segah--sarki--turkaksagi--sevda_yaratan--yesari_asim_arsoy
N: makam= segah
N: form= sarki
N: usul= turkaksagi = 5/8
M: 5/8
L: 1/16
K: C _1/4B _1/4e ^f 
Q: 1/4=120
%%MIDI tuningsystem comma53
g3/2f/eg f6 | a3/2g/ fag6  | g2a_2/4b c'2_b2 ag | \
w:  ARANAĞME  |   |   | 
ag f=ef6  | 
w:   | 
g4 agf_2/4e de | f4gf _2/4edc2  | d2e2 =f2=e2 d2 | \
w:   |   |   | 
dc B^AB6  | 
w:   | 
g3/2f/eg f6 | a3/2g/ fag6  | g2a_2/4b c'2_b2 ag | \
w:  ARANAĞME  |   |   | 
ag f=ef6  | 
w:   | 
g4 agf_2/4e de | f4gf _2/4edc2  | d2e2 =f2=e2 d2 | \
w:   |   |   | 
dc B^AB6  | 
w:   | 
B4 d4 c2 | dc B^AB6  | BcB^A GABc de | dc B^AB6  | 
w:  Sev da   |  ya *  ra *  tan   |  göz  |  le *  ri *  ni   | 
d2{=f}ed d4 c2 | (3ddc dedc B^Ag2  | \
w:  her   |   | 
f2g2 ga(3ff_2/4e ed | 
w:  za man_ öp  | 
d4d3/2c/ B^AB2  | B4 d4 c2 | dc B^AB6  | \
w:  sem   SAZ  |  Sev da   |  ya *  ra *  tan   | 
BcB^A GABc de | 
w:  göz  | 
dc B^AB6  | d2{=f}ed d4 c2 | (3ddc dedc B^Ag2  | \
w:  le *  ri *  ni   |  her   |   | 
f2g2 ga(3ff_2/4e ed | 
w:  za man_ öp  | 
d4_2/4e3/2d/ efg2  | a3g gf_2/4ed eg | \
w:  sem   SAZ  |  Doy *  mam   | 
f_2/4e ede4d2  | d2_2/4ef e2fg fe | 
w:  gü *  ze *  lim   |  haş  | 
d2 d2dc B^AB2  | (3ddcB^A BcBA G2 | (3aag =fe{a}g2 f2e2  | 
w:  re  ka dar   |  hep   |  hep   | 
d2e2 {g}=fedc B^A | B4_2/4e3/2d/ efg2  | \
w:  se ni  *  sev  |  sem   SAZ  | 
a3g gf_2/4ed eg | 
w:  Doy *  mam   | 
f_2/4e ede4d2  | d2_2/4ef e2fg fe | d2 d2dc B^AB2  | 
w:  gü *  ze *  lim   |  haş  |  re  ka dar   | 
(3ddcB^A BcBA G2 | (3aag =fe{a}g2 f2e2  | \
w:  hep   |  hep   | 
d2e2 {g}=fedc B^A | 
w:  se ni  *  sev  | 
B4d'3/2c'/ b^ab2  | g4 b4 d'2 | d'c' b^ab6  | \
w:  sem   SAZ  |  Ru hum   |  da  *  o  *  saf   | 
^abc'd' d'c'_b=a g2 | 
w:  duy  | 
a2 _b2ag f^ef2  | gg2a _bagf gb | a4f2 g_2/4ed2  | 
w:  gu la rın   |  nû  |   | 
_2/4e2f2 gafe ed | d4_7/8e3/2d/ efg2  | \
w:  ru  ya nar  |  ken   SAZ  | 
a3g gf_2/4ed eg | 
w:  Doy *  mam   | 
f_2/4e ede4d2  | d2_2/4ef e2fg fe | d2 d2dc B^AB2  | 
w:  gü *  ze *  lim   |  haş  |  re  ka dar   | 
(3ddcB^A BcBA G2 | (3aag =fe{a}g2 f2e2  | \
w:  hep   |  hep   | 
d2e2 {g}=fedc B^A | 
w:  se ni  *  sev  | 
B4_2/4e3/2d/ efg2  | a3g gf_2/4ed eg | \
w:  sem   SAZ  |  Doy *  mam   | 
f_2/4e ede4d2  | d2_2/4ef e2fg fe | 
w:  gü *  ze *  lim   |  haş  | 
d2 d2dc B^AB2  | (3ddcB^A BcBA G2 | (3aag =fe{a}g2 f2e2  | 
w:  re  ka dar   |  hep   |  hep   | 
d2e2 {g}=fedc B^A | B4|
w:  se ni  *  sev  |  sem    | 


